d1
$ (juxBy 0.5 (rev . hurry 2))
$ hurry "{0.5 4 2}%5"
-- $ hurry 0.5
$ fast (0.85 / "<2 1>")
$ stutWith 2 "0" (|* speed "0.95 1.05")
$ speed "{<1 0.9 1> <0.99 1 -1>}%2.3"
# s "{ukvox:1 ukvox:0 ukvox:5}%5"
# legato 1.3
-- # cut "1 0"
# accelerate "{-0.01 -0.02 -0.1 0.01}%3.3"
# gain 1


