d1
-- $ hurry "{2 0.5 0.25 0.125}%3"
-- $ juxBy (range 0.5 "-0.5" $ sine) (rev . (|+ n "{12 24}%5"))
-- $ striate "{8 4 16 1}%5"
$ n (id
  $ sometimes (arp "up") 
  $ scale "mixolydian" $ stack [id
  $ "{6 11 -5 0 -7 14 0 12}%8"
  , id
  $ "{6 11 -5 0 -7 14 0 12 17 0 10 4 1}%8" - 7
] - 3
)
# s "superpiano"
-- # velocity "{0.1 0.7 0.5}%7"
-- # lpfbus 0 (range 500 6500 $ slow 2.3 $ sine)
-- # verb 0.5 0.9 0.1 0.1
-- # cps (range 0.125 0.25 $ fast 2.5 $ perlin)