d1
$ fast "0.5"
$ jux rev
$ degradeBy 0.2
$ n (id
    $ scale "mixolydian"
    $ stutWith "<4 2>" "3 0.1" (|+ "<6 2 [7 -2]>")
    $ fast "<1.25 1 0.25>"
    $ "0 -5 7 9"
    )
# s "groq"
# sustain "{0.1 1 0.05 0.75 0.5 0.25}%4"
# accelerate "{0 0.4 0 0.2 0.1 0}%4"
# decay "[1 1.2]/4"
# voice "[0.5 2 2.5 0]/4"
# delay "{1 0 0.5 1 0.8}%4"
# delayt "s q"
# delayfb "0.4 0.6"
# lpf 800
# lpq 0.2
# room "{0.1 0 0.1}%4"
# size "{0.8 0}%3"
