d1
$ n "<0 1 2 3 4 5 6 7>"
# s "olooper"
# lname "loop0"

once $ s "freeLoops"

d2
$ degradeBy 0.9
$ slow 2
-- $ jux (rev . hurry "0.5 2")
-- $ iter 4
$ n (run 8)
# s "{loop0 loop1}%5"
# legato 1.2
# shape 0.9
-- # att 0.1
-- # rel 4
-- # crush 4
# coarse 4
# gain 1.3
# speed "{0.5 2}%3"
# cps 0.4
# distort 0.9
-- # cps (range 0.5 1 $ fast 1.5 $ saw)
# accelerate "-0.1"
# delay 1
# delayt 0.3
# delayfb 0.5