d1
$ stack [id
  -- $ hurry 0.5
  $ sometimes (ply 2)
  $ striate 32
  $ s "cinema"
  # legato 0.9
  # speedTake "s" [-1,-0.5,2,1,0.5]
  # accelerate "-1"
  # shape 0.5
  -- # lpf 1500
  -- # lpq 0.4
  , id
  -- $ sometimes (linger 0.1)
  -- $ loopAt 0.25
  $ slice 32 "<15 5>"
  $ s "cinema"
  # legato 2
  # shape 0.4
  -- # cut 1
]
# distort 0.3
# cps 0.6

once $ s "olooper"

once $ s "freeLoops"

d2
$ slow 2 
$ s "loop" 
# speed 0.5 
# gain 1.4
# shape 0.6

d3
$ s "bnbass808" # 