-- anticipateIn 1 2
d1
$ slow "{1 4 0.5 0.75}%5"
$ repeatCycles 4
$ stutWith "<3 1 2 3>" "e <s 0>" (|* speed "<-0.75 0.5 1.25>")
$ plyWith "1 <3 2>" ((# pan "0.75 0.5") . (# room 0.2) . (# legato 0.9))
$ slice "<16 8>" ("1 2!2 5 6 7*2" + "<1 0 2>")
$ n "{2 3 1}%2"
# s "bbc"
# pan "0.5 0.25"
# room "<0.3 0.1>"
# legato 2
