d1
$ hurry "<1%8>"
$ stutWith 3 "0" ((|* speed "<-1 -1.12>") . (fast "1%4"))
$ splice "<16 8 32>" ("<13!5 12*2 13 15>")
$ s "kotor"
# legato 1.5
# delaybus 2 (range 1 3 $ sine)
# lpfbus 3 (fast 1.1 $ range 2000 6000 $ sine)
# delaytimebus 1 "<[1%8 1%16] 1%2>"
# gain 1.3
|* speed "<1 -1.1>"
# room 0.6
