d1 $ jux rev $ speed "<0.75 1.5 0.5>(<3 5>,8)" # sound "bev" # legato 1
  # room 0.4 # sz 0.9 # gain 1.3

  hush

d2 $ jux rev $ sound "sax(3,8)" # cut 1 # n 3
  # note "<[9 7] 5 [9 12]>" # djf 0.7 # sz 0.4 # room 0.4
