-- sent to vital "piano from the yard sale"
d1
$ n (3 + scale "phrygian" ("{0 10 3 7}%5" + "{-7 -3 -10}%2"))
# s "[midi]"
# legato 0.5
-- # midichan 1

once $ s "looper"

d2 $ s "looper" # n "<0 1 2 3 4 5 6 7>"

d2 silence

d1 silence

d2 
$ juxBy "0.5 -0.5" (rev)
$ note ("-9 0" + "{0 4 7 24}%5") 
# s "loop" 
# gain 1.5
-- # cut 0
-- # speedTake "arg" [1,0.5,-1]
-- # verb 1 0.5 0.2 0.5