d1 
-- $ struct "t*9"
$ fix (id
  . juxBy 0.25 (rev . (|* speed "-1"))
  -- . (# crush 3) 
  . iter 4
  . echoWith 3 (1/3) (|+ note 7)
  -- . legato 0.1
  -- . (# cut 1)
  ) (s "tabla")
$ fix (id
  . jux rev
  . (|* speed 4)
  . plyWith 4 (|* gain 0.9)
  ) (s "tabla2" # n "[11,3,15,0]")
$ n "{0 11 32 3 4 15 20}%9"
# s "{tabla2 tabla}%3"
|* speed "{0.25 4 2}%4"
-- |* n 1.5
-- # nTake "n" [0,1,2,3,4,5,9,30,31]
-- # legato 1

silence