-- load: presp

d1
$ hurry "2 4"
$ juxBy (range "-0.5" 0.5 $ sine) (rev . hurry "{2 1 0.5}%4")
$ repeatCycles 4
$ iter 4
$ contrastBy (<=) ((|* speed 0.5) . (# squiz 4)) (fast 0.5 . (|* speed "-1")) (delayfeedback "0.5")
$ n "16*3? 25 19"
# s "presp"
# delay 0.9
# delayt "{x h e s t}%4"
# delayfb (range 0.25 0.8 $ slow 1.3 $ sine)
# speed 4
# unit "c"
# cut 1

d2
$ n "14"
# s "presp"
-- # speed 0.25
# accelerate "-1"