once $ s "looper"

once $ s "freeLoops"

d2 $ s "olooper" # n "<0 1 2 3 4 5 6 7>"

d1
-- $ hurry 0.25
$ splice 8 "2 0"
$ slow 8
$ n (run 8)
# s "loop"
# legato 1.2
# speed "{-0.25 1}%5"
-- # accelerate "-0.1"
# gain 1.5
# cps 0.6