d1
$ sometimes (id
  . (# bpfbus 0 (segment 512 $ range 500 7500 $ sine)) 
  . (# bpq "4 0.1")
)
$ stutWith 2 "1%32" (hurry "{0.5 2}%3")
$ struct "t*16"
$ striateBy "16 32" "{0.001 0.001 0.0013}%4"
$ s "laundry"
-- # legato 1
# gain 1.3
# speed "{1 -1 2 -2 -0.5}%11"
# cps 0.6
# pan 0.6

d2
$ chunk 4 (hurry 2)
$ splice 32 (id
  $ stutWith 2 "e" ((|+ 1) . fast 0.5)
  $ "8 16 4 2"
)
$ s "laundry"
# legato 1
# gain 1.3
# distort 0.3
# pan 0.4

