d1
-- $ hurry "{0.5 1 2}%5"
-- $ sometimes (juxBy 0.5 rev)
$ hurry 0.5
$ fast (0.85 / "<2 1>")
$ stutWith 2 "0" (|* speed "0.95 1.05")
$ speed "{<1 0.9 1> <0.99 1>}%2.3"
# s "{ukvox:1 ukvox:0}%5"
# legato 1.3
-- # cut "1 0"
# accelerate "{-0.01 -0.02 -0.01 0.01}%3.3"
# gain 1

d2
$ s "ukclap"