d1
$ rot "<1 0 1 0 0>"
$ juxBy 0.5 rev
$ stutWith "<2!4 [3 0]>" "{e q s 1%32 1}%2" ((|+ note "<7 [0 14]>") . (|+ n "{3 0!4 33}%4") . (hurry "1 2 1 1"))
$ n "0 1 2 3"
# s "pss795"
# cut "{0 1 2}%8"
# speed "[0.5 1]/3"
-- # delay 0.5
-- # delayt 1
-- # delayfb 0.8
# room 0.2 # sz 0.8
