d1 
$ stutWith 2 "f" (|+ n 7)
$ rot "<1 0>"
$ n "0 -7 4 2"
# s "superfm"
# fmfb 0.2
# fma [0,1,0,1,0,0]
# fmr [5.19, 0.5, 9.42, 2]
# fmm 1 [1]
# fmm 2 [1]
# fmm 4 [3]
# fmel 2 [1, 0.5, 0.25, 0]
# fmer 2 [20, 5.1, 0.5, 1]
# fmel 4 [1, 0.5, 0, 0]
# fmer 4 [20, 5.1, 0.5, 1]

hush