d1 
$ s "looper" # n "{0 1 2 3 4 5 6 7}%3"

d1
$ juxBy 0.5 rev
-- $ plyWith "{4 5 2}%1" ((|* legato 0.99) . (|* speed "0.8") . (|* gain 0.9))
-- $ chunk 4 (hurry 1 . chop "{4 2 8 1}%3")
$ n "{0 1 2 3 4 5 6 7}%6"
# s "loop"
# shape 0.9
# gain 1.4
-- # cut 0
-- # legato 1.4
# verb 0.9 0.6 0.13 0.9