d1
$ s "looper"
# n "{0 1 2 3 4 5 6 7}%4"

d1 silence

d2
$ juxBy 0.5 rev
$ sometimes (|+ n "{1 3}%3")
$ stutWith 4 "<e 0>" ((|* speed "-0.9") . (hurry 0.5))
$ n "{0 4 7*2 8 5}%6"
# shape 1.2
# s "loop"
# legato ("{0.2 1.3 1 2}%5" * 2)
# clouds (range 0 0.9 $ slow 1.4 $ sine) 0.5 0.8 0.8
# cloudsblend 0.7 0.5 0.55 (range 0.2 0.9 $ slow 1.3 $ sine)